packages/ffe-icons/icons/filled/md/sprint.svg

<svg xmlns="http://www.w3.org/2000/svg" height="24" viewBox="0 -960 960 960" width="24"><path d="M481.615-438.847 238.461-195.308q-9.307 9.307-21.576 9.307t-21.577-9.307q-9.307-9.308-9.307-21.577 0-12.269 9.307-21.576l372.54-371.54H429.999V-560q0 12.75-8.628 21.375-8.629 8.624-21.384 8.624-12.756 0-21.371-8.624-8.615-8.625-8.615-21.375v-73.655q0-15.652 10.394-25.998 10.394-10.346 25.759-10.346h194.77q14.495 0 27.632 5.615 13.137 5.615 22.983 15.462l115.384 114.384q22.308 22.308 50.346 36.769 28.039 14.462 60.577 19.693 13.108 2.217 22.746 11.454 9.638 9.237 9.638 22.199 0 12.961-10.73 21.268-10.731 8.308-23.5 6.692-43.461-5.23-80.499-23.615-37.039-18.385-68.27-49l-45.385-46.616L575.768-430l54.539 54.923q12.846 12.846 10.538 30.231-2.308 17.384-17.769 26.615L448-217.462q-10.539 6.077-23.023 3.06-12.485-3.017-18.538-13.577-6.054-10.56-2.607-23.035 3.446-12.475 14.168-18.524l147.77-85.154-84.155-84.155Zm-311.614-11.154q-12.75 0-21.375-8.628-8.625-8.629-8.625-21.384 0-12.756 8.625-21.371 8.625-8.615 21.375-8.615h120q12.749 0 21.374 8.628Q320-492.742 320-479.987q0 12.756-8.625 21.371-8.625 8.615-21.374 8.615h-120Zm-80-120q-12.75 0-21.375-8.628-8.625-8.629-8.625-21.384 0-12.756 8.625-21.371 8.625-8.615 21.375-8.615h120q12.749 0 21.374 8.628Q240-612.742 240-599.987q0 12.756-8.625 21.371-8.625 8.615-21.374 8.615h-120Zm688.999-80q-29.154 0-50.076-20.7-20.923-20.7-20.923-49.769 0-29.068 20.923-49.683 20.922-20.616 50.076-20.616t50.076 20.701q20.923 20.7 20.923 49.768 0 29.069-20.923 49.684-20.922 20.615-50.076 20.615Zm-608.999-40q-12.75 0-21.375-8.628-8.625-8.629-8.625-21.384 0-12.756 8.625-21.371 8.625-8.615 21.375-8.615h120q12.749 0 21.374 8.628Q320-732.742 320-719.987q0 12.756-8.625 21.371-8.625 8.615-21.374 8.615h-120Z"/></svg>

<svg xmlns="http://www.w3.org/2000/svg" height="24" viewBox="0 -960 960 960" width="24"><path d="M481.62-438.85 238.46-195.31q-9.31 9.31-21.58 9.31-12.26 0-21.57-9.31T186-216.88q0-12.27 9.31-21.58L567.85-610H430v50q0 12.75-8.63 21.37-8.63 8.63-21.38 8.63-12.76 0-21.37-8.63Q370-547.25 370-560v-73.66q0-15.65 10.39-25.99Q390.79-670 406.15-670h194.77q14.5 0 27.64 5.62 13.13 5.61 22.98 15.46l115.38 114.38q22.31 22.31 50.35 36.77 28.04 14.46 60.58 19.69 13.1 2.22 22.74 11.46 9.64 9.24 9.64 22.2 0 12.96-10.73 21.27-10.73 8.3-23.5 6.69-43.46-5.23-80.5-23.62-37.04-18.38-68.27-49l-45.38-46.61L575.77-430l54.54 54.92q12.84 12.85 10.54 30.23-2.31 17.39-17.77 26.62L448-217.46q-10.54 6.07-23.02 3.06-12.49-3.02-18.54-13.58-6.05-10.56-2.61-23.03 3.45-12.48 14.17-18.53l147.77-85.15-84.15-84.16ZM170-450q-12.75 0-21.37-8.63-8.63-8.63-8.63-21.38 0-12.76 8.63-21.37Q157.25-510 170-510h120q12.75 0 21.38 8.63 8.62 8.63 8.62 21.38 0 12.76-8.62 21.37Q302.75-450 290-450H170ZM90-570q-12.75 0-21.37-8.63Q60-587.26 60-600.01q0-12.76 8.63-21.37Q77.25-630 90-630h120q12.75 0 21.38 8.63 8.62 8.63 8.62 21.38 0 12.76-8.62 21.37Q222.75-570 210-570H90Zm689-80q-29.15 0-50.08-20.7Q708-691.4 708-720.47q0-29.07 20.92-49.68 20.93-20.62 50.08-20.62t50.08 20.7Q850-749.37 850-720.3q0 29.07-20.92 49.68Q808.15-650 779-650Zm-609-40q-12.75 0-21.37-8.63-8.63-8.63-8.63-21.38 0-12.76 8.63-21.37Q157.25-750 170-750h120q12.75 0 21.38 8.63 8.62 8.63 8.62 21.38 0 12.76-8.62 21.37Q302.75-690 290-690H170Z"/></svg>
